X:1
T:Title
%%score { ( 1 2 ) | ( 3 4 ) }
L:1/8
M:4/4
K:F
V:1 treble nm="Grand Piano"
V:2 treble 
V:3 bass 
V:4 bass 
V:1
 z4 z2[Q:1/4=94] z G | A2 c2 d3 c | c2 A4 z G | [CFA]2 [CFA]2 [CAc]3 [CFA] |[M:3/4] [CFA]2 [CEG]4 | %5
[M:1/4] F2 |[M:4/4] A2 c2 d3 c | c2 A4 z G | [CFA]2 [DFB]2 [CFA]3 [B,EG] |[M:3/4] [B,EG]2 F4 | %10
[M:1/4] c>c |[M:4/4] [Fd]>[Fd] [Fd]>[Fd] [Fd]2 [Fd]>[Fd] | [Fc]2 [FA]2 [Ac]2 [GB]>[FA] | %13
 [EG]2 [EG]2 [Ec]2 [EG]2 | A2 c4 c>c |[M:3/4] [Fd]>[Fd] [Fd]>[Fd] [Fd]2 |[M:1/4] [Fd]>[Fd] | %17
[M:4/4] [Fc]2 [CFA]2 [FAc]2 [CGB]>[CFA] | [B,DG]2 [DGB]2 [CFA]2 [B,EG]2 |[M:3/4] [A,F]6 |] %20
V:2
 z4 z2 F2 | x8 | z4 z2 F2 | x8 |[M:3/4] x6 |[M:1/4] A,G |[M:4/4] x8 | z4 z2 F2 | x8 |[M:3/4] x6 | %10
[M:1/4] x2 |[M:4/4] x8 | x8 | x8 | x8 |[M:3/4] x6 |[M:1/4] x2 |[M:4/4] x8 | x8 |[M:3/4] x6 |] %20
V:3
 z4 z2 A,B, | [F,CF]2 [F,A,F]2 [F,B,F]3 [F,A,F] | [F,A,F]2 [F,CF]4 A,B, | F,2 F,2 F,3 F, | %4
[M:3/4] C,2 C,4 |[M:1/4] z B, |[M:4/4] [F,CF]2 [F,A,F]2 [F,B,F]3 [F,A,F] | [F,A,F]2 [F,CF]4 A,B, | %8
 F,2 B,,2 C,3 C, |[M:3/4] C,2 [F,A,]4 |[M:1/4] [F,A,F]>[F,A,F] | %11
[M:4/4] [B,,B,]>[B,,B,] [B,,B,]>[B,,B,] [B,,B,]2 [B,,B,]>[B,,B,] | %12
 [F,A,]2 [F,C]2 [F,F]2 [E,C]>[F,C] | [C,C]2 [C,C]2 [C,G,]2 [C,C]2 | C2 z2 z4 | %15
[M:3/4] [B,,B,]>[B,,B,] [B,,B,]>[B,,B,] [B,,B,]2 |[M:1/4] [B,,B,]>[B,,B,] | %17
[M:4/4] [F,A,]2 F,2 F,2 E,>F, | B,,2 B,,2 C,2 C,2 |[M:3/4] F,6 |] %20
V:4
 z4 z2 F,2 | x8 | z4 z2 F,2 | x8 |[M:3/4] x6 |[M:1/4] F,2 |[M:4/4] x8 | z4 z2 F,2 | x8 | %9
[M:3/4] x6 |[M:1/4] x2 |[M:4/4] x8 | x8 | x8 | [F,F]2- [F,A,F]4 [F,A,F]>[F,A,F] |[M:3/4] x6 | %16
[M:1/4] x2 |[M:4/4] x8 | x8 |[M:3/4] x6 |] %20

